components/AnnouncementBar/logos/color-coupang.svg

<svg width="601" height="135" viewBox="0 0 601 75" fill="none" xmlns="http://www.w3.org/2000/svg">
<path d="M600 2.02563C600 1.32563 599.4 0.725647 598.7 0.725647C589 0.425647 582.7 4.42565 578.7 8.82565C573.3 4.12565 564.9 0.325647 552.1 0.225647H552H551.9C532.9 0.325647 523.7 8.62563 519.2 15.9256C514.6 23.6256 514.4 31.8256 514.4 33.4256V34.3257C514.4 36.0257 514.6 44.1257 519.3 51.8257C521.3 55.1257 524.2 58.6256 528.6 61.4256C521.5 65.5256 515.1 72.8256 515.1 85.9256V92.8257C515.1 93.5257 515.6 94.1256 516.4 94.1256H570.7C577.2 94.1256 580.5 98.4256 581.5 102.526C582.7 107.626 580.7 114.626 572 119.226C571.5 119.426 571.1 119.926 571.1 120.426C571.1 120.726 571.2 120.926 571.3 121.126L578.4 134.026C578.6 134.426 579.1 134.826 579.6 134.826C579.8 134.826 580 134.826 580.2 134.726C596.6 126.326 600.2 110.526 597.6 98.9256C594.7 86.2256 584 77.7256 570.8 77.7256L533.3 78.6256C535.4 67.3256 548.6 67.5256 550.2 67.5256C550.8 67.5256 551.4 67.6256 552.1 67.6256H552.2H552.3C571.3 67.5256 580.5 59.2256 585 51.9256C589.6 44.2256 589.8 36.0256 589.8 34.4256V33.5256C589.8 32.1256 589.6 26.1256 586.8 19.6256C589.3 17.9256 593.2 16.3256 598.8 16.6256C599.5 16.6256 600.1 16.0256 600.1 15.4256V2.02563H600ZM570.7 34.5256C570.7 38.1256 568.1 51.2256 552 51.2256C535.9 51.1256 533.3 38.1256 533.3 34.5256V33.3257C533.3 29.7257 535.9 16.6256 552 16.5256C568.1 16.6256 570.7 29.6257 570.7 33.3257V34.5256Z" fill="#4DA4E0"/>
<path d="M502 35.1256C502 33.4256 501.8 24.8256 497.7 16.7256C493.7 9.02565 485.4 0.225647 468.3 0.225647C468.3 0.225647 468.3 0.225647 468.2 0.225647C468.2 0.225647 468.2 0.225647 468.1 0.225647C456.8 0.225647 449.4 4.82564 444.5 9.62564V3.32565V3.22565C444.5 2.52565 443.9 1.92563 443.2 1.92563H428.1C427.4 1.92563 426.8 2.52565 426.8 3.22565C426.8 3.22565 426.8 3.22565 426.8 3.32565V93.2256C426.9 93.9256 427.4 94.4256 428.1 94.4256H428.2H444.3C445 94.4256 445.6 93.9256 445.6 93.2256V93.1256V33.4256C446 28.6256 449.3 16.7256 464.3 16.7256C480.4 16.8256 483 30.5256 483 34.4256V93.0256V93.1256C483 93.8256 483.6 94.4256 484.3 94.4256H500.6C501.3 94.4256 501.9 93.8256 501.9 93.1256V93.0256V35.1256H502Z" fill="#93BA2F"/>
<path d="M412 34.2257C412 26.8257 408.3 9.62567 391.6 2.72567C374.6 -4.27433 351.9 4.12566 346.3 6.62566C345.8 6.72566 345.3 7.22567 345.3 7.82567C345.3 8.02567 345.4 8.22565 345.5 8.42565L350.1 21.4256C350.3 21.9256 350.7 22.2257 351.3 22.2257C351.5 22.2257 351.6 22.2257 351.8 22.1257C358 18.9257 374.9 13.2256 385.2 17.9256C395.2 22.5256 394.3 33.1257 394.4 34.3257V34.7257V36.9256C389.5 33.4256 382.8 30.0256 373.2 29.9256H373.1H373C355.9 30.0256 347.6 38.2257 343.6 45.5257C339.4 53.2257 339.2 61.2256 339.2 62.9256C339.2 64.5256 339.4 72.6257 343.6 80.2257C347.6 87.5257 355.9 95.7257 373 95.8257H373.1H373.2C383.2 95.8257 390.1 92.2257 395 88.4257V92.8257C395 93.5257 395.6 94.1257 396.3 94.1257C396.3 94.1257 396.3 94.1257 396.4 94.1257H410.6C411.3 94.1257 411.9 93.5257 411.9 92.8257V44.0257V34.5257C412 34.6257 412 34.4257 412 34.2257ZM394.5 63.6257C394.5 67.3257 391.9 80.2257 376.3 80.2257C360.6 80.1257 358.1 67.3257 358.1 63.6257V62.1257C358.1 58.4257 360.7 45.5257 376.3 45.5257C392 45.6257 394.5 58.4257 394.5 62.1257V63.6257Z" fill="#EA991B"/>
<path d="M325.2 16.8257C321.2 9.12568 312.9 0.325684 295.8 0.325684H295.7H295.6C284.3 0.325684 276.9 5.02568 271.9 9.82568V3.32568C271.9 2.62568 271.3 2.02567 270.6 2.02567H270.5H255.6H255.5C254.8 2.02567 254.2 2.62568 254.2 3.32568V131.526C254.2 132.226 254.8 132.826 255.5 132.826H255.6H271.7H271.8H271.9H272C272.6 132.726 273.1 132.226 273.1 131.626V131.526V87.9257C278 92.2257 285.1 96.2257 295.6 96.2257H295.7H295.8C312.9 96.1257 321.2 87.4257 325.2 79.7257C329.4 71.6257 329.6 63.1257 329.6 61.3257V35.2257C329.6 33.4257 329.4 24.9257 325.2 16.8257ZM310.6 62.0257C310.6 65.9257 308 79.6257 291.9 79.7257C275.8 79.6257 273.2 65.9257 273.2 62.0257V34.3257C273.2 30.4257 275.8 16.7257 291.9 16.6257C308 16.7257 310.6 30.3257 310.6 34.3257V62.0257Z" fill="#D83128"/>
<path d="M77 35.1256C77 33.4256 77.2 24.8256 81.8 16.7256C86.2 9.02565 95.5 0.225647 114.5 0.225647H114.6H114.7C133.7 0.325647 142.9 9.02565 147.4 16.7256C152.1 24.8256 152.2 33.3256 152.2 35.1256V61.2256C152.2 62.9256 152 71.5256 147.4 79.6256C143 87.3256 133.7 96.1256 114.7 96.1256H114.6H114.5C95.5 96.0256 86.3 87.3256 81.8 79.6256C77.2 71.5256 77 63.0256 77 61.2256V35.1256V35.1256ZM95.9 62.0256C95.9 65.9256 98.5 79.6256 114.6 79.7256C130.7 79.6256 133.3 65.9256 133.3 62.0256V34.3257C133.3 30.4257 130.7 16.7256 114.6 16.6256C98.5 16.7256 95.9 30.4257 95.9 34.3257V62.0256ZM71.4 77.3257C71.4 76.8257 71.1 76.3256 70.7 76.1256C70.7 76.1256 70.7 76.1256 70.6 76.1256L56.3 69.0256C56.1 68.9256 55.9 68.8257 55.7 68.8257C55.2 68.8257 54.8 69.1256 54.6 69.5256C54.6 69.5256 54.6 69.6256 54.5 69.6256C52.2 74.4256 47.4 79.5256 37.6 79.6256C21.5 79.5256 18.9 65.8256 18.9 61.9256V34.2256C18.9 30.3256 21.5 16.6256 37.6 16.5256C47.5 16.5256 52.3 21.8256 54.6 26.7256C54.8 27.2256 55.3 27.5256 55.8 27.5256C56 27.5256 56.2 27.4257 56.4 27.3257L70.6 19.9256C71 19.7256 71.3 19.3257 71.3 18.8257C71.3 18.6257 71.3 18.4257 71.2 18.3257C70.9 17.8257 70.7 17.2256 70.4 16.7256C66 9.02565 56.7 0.225647 37.7 0.225647H37.6H37.5C18.5 0.325647 9.3 9.02565 4.8 16.7256C0.100001 24.8256 0 33.3256 0 35.1256V61.2256C0 62.9256 0.200001 71.5256 4.8 79.6256C9.2 87.3256 18.5 96.1256 37.5 96.1256H37.6H37.7C56.7 96.0256 65.9 87.3256 70.4 79.6256C70.7 79.0256 71 78.5256 71.3 77.9256C71.3 77.7256 71.4 77.6257 71.4 77.3257ZM240 93.0256V3.32565C240 2.62565 239.4 2.02563 238.7 2.02563H222.4C221.7 2.02563 221.1 2.62565 221.1 3.32565V3.42563V35.1256V62.0256C221.1 65.9256 218.5 79.6256 202.4 79.7256C186.3 79.6256 183.7 66.0256 183.7 62.0256V3.42563C183.7 2.72563 183.1 2.12564 182.4 2.12564H166.2C165.5 2.12564 164.9 2.72563 164.9 3.42563V61.3257C164.9 63.0257 165.1 71.6256 169.3 79.7256C173.3 87.4256 181.6 96.2256 198.7 96.2256H198.8H198.9C210.2 96.2256 217.6 91.6256 222.6 86.7256V93.1256C222.6 93.8256 223.2 94.4256 223.9 94.4256C223.9 94.4256 223.9 94.4256 224 94.4256H239C239.4 94.4256 240 93.8256 240 93.0256Z" fill="#560000"/>
</svg>

<svg xmlns="http://www.w3.org/2000/svg" width="601" height="135" viewBox="0 0 601 75">
  <path fill="#4DA4E0" d="M600 2.026c0-.7-.6-1.3-1.3-1.3-9.7-.3-16 3.7-20 8.1-5.4-4.7-13.8-8.5-26.6-8.6h-.2c-19 .1-28.2 8.4-32.7 15.7-4.6 7.7-4.8 15.9-4.8 17.5v.9c0 1.7.2 9.8 4.9 17.5 2 3.3 4.9 6.8 9.3 9.6-7.1 4.1-13.5 11.4-13.5 24.5v6.9c0 .7.5 1.3 1.3 1.3h54.3c6.5 0 9.8 4.3 10.8 8.4 1.2 5.1-.8 12.1-9.5 16.7-.5.2-.9.7-.9 1.2 0 .3.1.5.2.7l7.1 12.9c.2.4.7.8 1.2.8.2 0 .4 0 .6-.1 16.4-8.4 20-24.2 17.4-35.8-2.9-12.7-13.6-21.2-26.8-21.2l-37.5.9c2.1-11.3 15.3-11.1 16.9-11.1.6 0 1.2.1 1.9.1h.2c19-.1 28.2-8.4 32.7-15.7 4.6-7.7 4.8-15.9 4.8-17.5v-.9c0-1.4-.2-7.4-3-13.9 2.5-1.7 6.4-3.3 12-3 .7 0 1.3-.6 1.3-1.2v-13.4h-.1Zm-29.3 32.5c0 3.6-2.6 16.7-18.7 16.7-16.1-.1-18.7-13.1-18.7-16.7v-1.2c0-3.6 2.6-16.7 18.7-16.8 16.1.1 18.7 13.1 18.7 16.8v1.2Z"/>
  <path fill="#93BA2F" d="M502 35.126c0-1.7-.2-10.3-4.3-18.4-4-7.7-12.3-16.5-29.4-16.5h-.2c-11.3 0-18.7 4.6-23.6 9.4v-6.4c0-.7-.6-1.3-1.3-1.3h-15.1c-.7 0-1.3.6-1.3 1.3v90c.1.7.6 1.2 1.3 1.2h16.2c.7 0 1.3-.5 1.3-1.2v-59.8c.4-4.8 3.7-16.7 18.7-16.7 16.1.1 18.7 13.8 18.7 17.7v58.7c0 .7.6 1.3 1.3 1.3h16.3c.7 0 1.3-.6 1.3-1.3v-58h.1Z"/>
  <path fill="#EA991B" d="M412 34.226c0-7.4-3.7-24.6-20.4-31.5-17-7-39.7 1.4-45.3 3.9-.5.1-1 .6-1 1.2 0 .2.1.4.2.6l4.6 13c.2.5.6.8 1.2.8.2 0 .3 0 .5-.1 6.2-3.2 23.1-8.9 33.4-4.2 10 4.6 9.1 15.2 9.2 16.4v2.6c-4.9-3.5-11.6-6.9-21.2-7h-.2c-17.1.1-25.4 8.3-29.4 15.6-4.2 7.7-4.4 15.7-4.4 17.4 0 1.6.2 9.7 4.4 17.3 4 7.3 12.3 15.5 29.4 15.6h.2c10 0 16.9-3.6 21.8-7.4v4.4c0 .7.6 1.3 1.3 1.3h14.3c.7 0 1.3-.6 1.3-1.3v-58.3c.1.1.1-.1.1-.3Zm-17.5 29.4c0 3.7-2.6 16.6-18.2 16.6-15.7-.1-18.2-12.9-18.2-16.6v-1.5c0-3.7 2.6-16.6 18.2-16.6 15.7.1 18.2 12.9 18.2 16.6v1.5Z"/>
  <path fill="#D83128" d="M325.2 16.826c-4-7.7-12.3-16.5-29.4-16.5h-.2c-11.3 0-18.7 4.7-23.7 9.5v-6.5c0-.7-.6-1.3-1.3-1.3h-15.1c-.7 0-1.3.6-1.3 1.3v128.2c0 .7.6 1.3 1.3 1.3H272c.6-.1 1.1-.6 1.1-1.2v-43.7c4.9 4.3 12 8.3 22.5 8.3h.2c17.1-.1 25.4-8.8 29.4-16.5 4.2-8.1 4.4-16.6 4.4-18.4v-26.1c0-1.8-.2-10.3-4.4-18.4Zm-14.6 45.2c0 3.9-2.6 17.6-18.7 17.7-16.1-.1-18.7-13.8-18.7-17.7v-27.7c0-3.9 2.6-17.6 18.7-17.7 16.1.1 18.7 13.7 18.7 17.7v27.7Z"/>
  <path fill="#560000" d="M77 35.126c0-1.7.2-10.3 4.8-18.4 4.4-7.7 13.7-16.5 32.7-16.5h.2c19 .1 28.2 8.8 32.7 16.5 4.7 8.1 4.8 16.6 4.8 18.4v26.1c0 1.7-.2 10.3-4.8 18.4-4.4 7.7-13.7 16.5-32.7 16.5h-.2c-19-.1-28.2-8.8-32.7-16.5-4.6-8.1-4.8-16.6-4.8-18.4v-26.1Zm18.9 26.9c0 3.9 2.6 17.6 18.7 17.7 16.1-.1 18.7-13.8 18.7-17.7v-27.7c0-3.9-2.6-17.6-18.7-17.7-16.1.1-18.7 13.8-18.7 17.7v27.7Zm-24.5 15.3c0-.5-.3-1-.7-1.2h-.1l-14.3-7.1c-.2-.1-.4-.2-.6-.2-.5 0-.9.3-1.1.7 0 0 0 .1-.1.1-2.3 4.8-7.1 9.9-16.9 10-16.1-.1-18.7-13.8-18.7-17.7v-27.7c0-3.9 2.6-17.6 18.7-17.7 9.9 0 14.7 5.3 17 10.2.2.5.7.8 1.2.8.2 0 .4-.1.6-.2l14.2-7.4c.4-.2.7-.6.7-1.1 0-.2 0-.4-.1-.5-.3-.5-.5-1.1-.8-1.6C66 9.026 56.7.226 37.7.226h-.2c-19 .1-28.2 8.8-32.7 16.5-4.7 8.1-4.8 16.6-4.8 18.4v26.1c0 1.7.2 10.3 4.8 18.4 4.4 7.7 13.7 16.5 32.7 16.5h.2c19-.1 28.2-8.8 32.7-16.5.3-.6.6-1.1.9-1.7 0-.2.1-.3.1-.6Zm168.6 15.7v-89.7c0-.7-.6-1.3-1.3-1.3h-16.3c-.7 0-1.3.6-1.3 1.3v58.7c0 3.9-2.6 17.6-18.7 17.7-16.1-.1-18.7-13.7-18.7-17.7v-58.6c0-.7-.6-1.3-1.3-1.3h-16.2c-.7 0-1.3.6-1.3 1.3v57.9c0 1.7.2 10.3 4.4 18.4 4 7.7 12.3 16.5 29.4 16.5h.2c11.3 0 18.7-4.6 23.7-9.5v6.4c0 .7.6 1.3 1.3 1.3H239c.4 0 1-.6 1-1.4Z"/>
</svg>
